!!!COA: Josquin des Prez
!!!CDT: ~1450-1521/08/27
!!!OTL@@FRA: Je me  (Je [me] suis si trestourte)
!!!AGN: Chanson
!!!SCT: NJE 27.17
!!!SCA: New Josquin Edition 27.17
!!!voices: 3
**kern	**kern	**kern
*staff3	*staff2	*staff1
*Ivox	*Ivox	*Ivox
*I"Contra	*I"Tenor	*I"Superius
*I'C	*I'T	*I'S
*clefF4	*clefGv2	*clefG2
*k[b-]	*k[b-]	*k[b-]
*M3/1	*M3/1	*M3/1
*met(O)	*met(O)	*met(O)
=1-	=1-	=1-
1r	0.r	0.r
1r	.	.
1A	.	.
=2	=2	=2
1B-	1r	0.r
2A\	1r	.
1G	.	.
.	1A	.
2F#i\	.	.
=3	=3	=3
2G\	1B-	1r
1D	.	.
.	2A/	1r
4C/	1G	.
4BB-/	.	.
1AA	.	1a
.	2F#i/	.
=4	=4	=4
1GG	1G	1b-
0D	0A	2a/
.	.	1g
.	.	2f#i/
=5	=5	=5
1E	2G/	1g
.	2E/	.
0D	2F/	0a
.	2.D/	.
.	4E/	.
.	2F/	.
=6	=6	=6
1GG	0G	1.g
1.G	.	.
.	.	1b-
.	[1d	.
4F\	.	4a/
4E\	.	4g/
=7	=7	=7
1D	1d]	1f
0C	0e-i	2g/
.	.	1g
.	.	4f/
.	.	4e/
=8	=8	=8
1D	1d	1f
1G	1B-	2g/
.	.	1b-
1F	1c	.
.	.	2a/
=9	=9	=9
2G\	2B-\	2b-\
1F	1c	2.a/
.	.	4g/
2E\	2G/	1g
1D	1A	.
.	.	2f#i/
=10	=10	=10
[0.GG	1G	1g
.	1d	1r
.	2d\	[1dd
.	[2B-\	.
=11	=11	=11
0.GG]	2B-\]	2dd\]
.	2G/	1b-
.	1G	.
.	.	2g/
.	1B-	1g
=12	=12	=12
0D	2A/	1a
.	1d	.
.	.	1f
.	1B-	.
1E-	.	1g
.	[2c\	.
=13	=13	=13
2F\	2c\]	2a/
1.G	4B-\	2.b-\
.	4A/	.
.	2G/	.
.	.	4a/
.	1d	4g/
.	.	4f/
1A	.	1e
.	2c#i\	.
=14	=14	=14
1.D	0d	1d
.	.	1r
2.G\	.	.
.	1G	1dd
4A\	.	.
2B-\	.	.
=15	=15	=15
2G\	1r	2b-\
2.A\	.	2.cc\
.	1r	.
4G\	.	4b-\
4F\	.	4a/
4E\	.	4g/
1D	1d	2.f#i/
.	.	4e/
=16	=16	=16
1E	2B-\	1g
.	2.c\	.
1C	.	1r
.	4B-\	.
.	4A/	.
.	4G/	.
1D	2.F#i/	1a
.	4E/	.
=17	=17	=17
1GG	2G/	1.b-
.	2.d\	.
0D	.	.
.	4e\	.
.	1f	1a
.	4e\	4g/
.	4d\	4f/
=18	=18	=18
2r	2c\	2e/
2.BB-/	2d\	1d
.	1G	.
4C/	.	.
2E-i\	.	1g
1D	1A	.
.	.	2f#i/
=19	=19	=19
1.B-	2.G/	2g/
.	.	1dd
.	4A/	.
.	2B-\	.
2A\	2c\	2cc\
2G\	[1d	2b-\
4F\	.	4a/
4E\	.	4g/
=20	=20	=20
0D	1d]	0f
.	1r	.
1G	[1B-	1r
=21	=21	=21
2D\	1B-]	0.r
2G\	.	.
4A\	1A	.
4G\	.	.
4F\	.	.
4E\	.	.
1F	1A	.
=22	=22	=22
1G	2G/	0b-
.	1d	.
1GG	.	.
.	2B-\	.
1r	4c\	1a
.	4B-\	.
.	4A/	.
.	4G/	.
=23	=23	=23
1D	1F	1a
1GG	1G	2g/
.	.	1dd
1G	1B-	.
.	.	2b-\
=24	=24	=24
1F	1A	2cc\
.	.	1a
2D\	1d	.
1G	.	2b-\
.	2e\	2g/
2F\	[2f\	[2a/
=25	=25	=25
1D	2f\]	2a/]
.	4e\	4g/
.	4d\	4f/
2A\	2c\	2e/
2B-\	1d	2d/
1A	.	1e
.	2c#i\	.
=26	=26	=26
1.D	0d	1d
.	.	1r
2.G\	.	.
.	1G	1b-
4A\	.	.
2B-\	.	.
=27	=27	=27
2A\	2r	2cc\
1F	1c	2.a/
.	.	4g/
2G\	2B-\	1g
1D	1A	.
.	.	2f#i/
=28	=28	=28
1G	2G/	2g/
.	1d	2b-\
2F\	.	1a
2A\	2c\	.
1G	2d\	2r
.	2B-\	[2g/
=29	=29	=29
2E\	2c\	2g/]
2F\	2A/	2a/
2D\	2r	2f/
2E-i\	2.G/	2g/
2C/	.	2e/
.	4A/	.
2BB-/	4B-\	[2d/
.	4c\	.
=30	=30	=30
2GG/	2.d\	4d/]
.	.	4e/
2D\	.	4f/
.	4e\	4g/
2r	2f\	2a/
2GG/	2g\	2b-\
2C/	2e\	2cc\
[2BB-/	2f\	[2dd\
=31	=31	=31
4BB-/]	1d	4dd\]
4C/	.	4cc\
4D\	.	2b-\
4E\	.	.
2F\	2c\	4a/
.	.	4g/
2G\	2B-\	1g
1D	1A	.
.	.	2f#i/
=32	=32	=32
0.GG;l	0.G;l	0.g;l
=33||	=33||	=33||
*M2/1	*M2/1	*M2/1
*met(C|)	*met(C|)	*met(C|)
0BB-	0D	0r
=34	=34	=34
0AA	1E	0r
.	1F	.
=35	=35	=35
[0GG	[0G	[0b-
=36	=36	=36
0GG]	0G]	0b-]
=37	=37	=37
0D	1.F	1.a
.	2E/	2g/
=38	=38	=38
1r	1D	0f
1D	1D	.
=39	=39	=39
1.C	0E	1r
.	.	1g
2BB-/	.	.
=40	=40	=40
0AA	1F	0a
.	1F	.
=41	=41	=41
1r	0G	2b-\
.	.	1b-
1G	.	.
.	.	4a/
.	.	4g/
=42	=42	=42
1.F	0D	0a
2E\	.	.
=43	=43	=43
0D	0r	0r
=44	=44	=44
[0GG	[0B-	[0d
=45	=45	=45
0GG_	0B-_	0d]
=46	=46	=46
0GG]	0B-]	1d
.	.	1d
=47	=47	=47
1D	1A	1f
1E	1G	1g
=48	=48	=48
0D	0F	0a
=49	=49	=49
0GG	0G	1.b-
.	.	4a/
.	.	4g/
=50	=50	=50
[0D	0A	0f
=51	=51	=51
0D]	1r	1r
.	1A	1f
=52	=52	=52
1r	1B-	1g
1D	2A/	1a
.	2F/	.
=53	=53	=53
1G	2.G/	1b-
.	4F/	.
2F\	1D	2a/
2D\	.	2f/
=54	=54	=54
2E\	2r	2.g/
1G	2G/	.
.	.	4f/
.	2B-\	1d
4F\	2c\	.
4E\	.	.
=55	=55	=55
1D	1.d	2r
.	.	2a/
1GG	.	2b-\
.	2e\	2cc\
=56	=56	=56
2r	2.f\	2.dd\
1D	.	.
.	4e\	4cc\
.	4d\	4b-\
.	4c\	4a/
2GG/	[2d\	[2b-\
=57	=57	=57
4AA/	2d\]	2b-\]
4BB-/	.	.
2C/	4c\	4a/
.	4B-\	4g/
1D	1A	2.f#i/
.	.	4e/
=58	=58	=58
0GGl	0Gl	0gl
==	==	==
*-	*-	*-
!!!RDF**kern: l=long note in original notation
!!!RDF**kern: i=editorial accidental
!!!ENC:	Jesse Rodin; Victoria Chang 2011/05/30
!!!END:	2011/05/30/
!!!EED:	Jesse Rodin
!!!EEV:	2011/08/11/
!!attribution-level@Jos: 3 (tricky)
!!!ONB:	Translated from MusicXML and edited on 2011/08/11/ by Craig Sapp
!!muse2ps:  C^@{COM}{/}@{COA}?\n@{SCT}^v100,100,150I150Q16
